src/icons/svg/form.svg

<?xml version="1.0" encoding="UTF-8" standalone="no"?>
<svg width="128px" height="128px" viewBox="0 0 128 128" version="1.1" xmlns="http://www.w3.org/2000/svg" xmlns:xlink="http://www.w3.org/1999/xlink">
    <!-- Generator: Sketch 40 (33762) - http://www.bohemiancoding.com/sketch -->
    <title>form</title>
    <desc>Created with Sketch.</desc>
    <defs></defs>
    <g id="Page-1" stroke="none" stroke-width="1" fill="none" fill-rule="evenodd">
        <g id="form" fill="#000000">
            <path d="M84.0675631,23.7837053 C83.048141,23.7837053 82.1908998,23.4640318 81.4958393,22.8246849 C80.8007788,22.1853379 80.2215617,21.4394332 79.7581881,20.5869706 C79.2948145,19.734508 78.9472843,18.8607339 78.7155974,17.9656482 C78.4839105,17.0705625 78.3680671,16.3246578 78.3680672,15.7279339 L78.3680672,-2.50244377e-07 L78.6460914,-2.50244377e-07 C79.4801639,-2.50244377e-07 80.2678991,0.085245998 81.0092969,0.255738495 C81.7506946,0.426230991 82.6542732,0.831150712 83.7200327,1.47049766 C84.7857922,2.1098446 86.0832384,3.00493029 87.6123712,4.15575473 C89.1415041,5.30657916 91.0645048,6.8197002 93.3813731,8.69511783 C95.8835908,10.741028 97.8760975,12.4672646 99.3588932,13.8738279 C100.841689,15.2803912 101.976954,16.4738387 102.764689,17.4541706 C103.552425,18.4345024 104.038967,19.2656534 104.224316,19.9476236 C104.409666,20.6295938 104.502341,21.2263175 104.502341,21.7377949 L104.502341,23.783705 L84.0675629,23.783705 L84.0675631,23.7837053 Z M127.300324,84.0101849 C127.578348,84.692155 127.763697,85.5446176 127.856372,86.5675726 C127.949047,87.5905277 127.485673,88.5708596 126.466251,89.5085685 C126.002878,89.9347997 125.585841,90.3397194 125.215142,90.7233276 C124.844443,91.1069358 124.520082,91.4266093 124.242058,91.682348 C123.871359,92.023333 123.546997,92.2790718 123.268973,92.4495644 L111.452945,81.7085362 C112.008994,81.282305 112.634548,80.7708275 113.329608,80.1741036 C114.024669,79.5773798 114.603886,79.1085254 115.06726,78.7675404 C116.179356,77.8298316 117.384128,77.4249119 118.681574,77.5527813 C119.97902,77.6806506 121.044779,77.957701 121.878852,78.3839323 C122.805599,78.8101636 123.801853,79.5560683 124.867612,80.6216466 C125.933371,81.6872248 126.744275,82.8167377 127.300324,84.0101852 L127.300324,84.0101849 Z M78.2290551,95.9020376 C80.2678991,95.9020376 81.9823816,95.3905601 83.3725025,94.367605 L56.4041565,120.19722 L18.036819,120.19722 C16.2759991,120.19722 14.3529985,119.728366 12.2678171,118.790657 C10.1826357,117.852948 8.23646637,116.616878 6.42930914,115.082445 C4.62215191,113.548012 3.11618757,111.779153 1.91141611,109.775866 C0.706644653,107.772579 0.104258925,105.705357 0.104258925,103.574201 L0.104258925,16.4951504 C0.104258925,14.704979 0.544463892,12.8295614 1.42487383,10.8688975 C2.30528376,8.90823366 3.51005522,7.13937384 5.0391882,5.56231808 C6.56832118,3.98526232 8.30597232,2.66394534 10.2521416,1.59836716 C12.1983109,0.532788968 14.237155,-1.25122186e-07 16.3686737,-1.25122185e-07 L69.6103053,-1.25122185e-07 L69.6103053,15.9836728 C69.6103053,17.6033517 69.8883295,19.3508999 70.4443779,21.2263176 C71.0004263,23.1017352 71.8576676,24.8279719 73.0161017,26.4050277 C74.1745358,27.9820834 75.6805001,29.3034004 77.5339947,30.3689786 C79.3874893,31.4345568 81.6116828,31.9673459 84.2065751,31.9673459 L104.502341,31.9673459 L104.502341,74.2921118 L85.457684,92.4495642 C86.477106,91.0856241 86.986817,89.5938146 86.986817,87.9741357 C86.986817,85.7577331 86.1295758,83.8610039 84.4150933,82.2839482 C82.7006107,80.7068924 80.638598,79.9183645 78.2290551,79.9183645 L26.0995203,79.9183645 C23.6899774,79.9183645 21.6511334,80.7068924 19.9829882,82.2839482 C18.3148431,83.8610039 17.4807705,85.7577331 17.4807705,87.9741357 C17.4807705,90.1905384 18.3148431,92.065956 19.9829882,93.6003886 C21.6511334,95.1348213 23.6899774,95.9020376 26.0995203,95.9020376 L78.2290551,95.9020376 L78.2290551,95.9020376 Z M26.0995203,47.9510188 C23.6899774,47.9510188 21.6511334,48.7395467 19.9829882,50.3166024 C18.3148431,51.8936582 17.4807705,53.7903874 17.4807705,56.00679 C17.4807705,58.2231926 18.3148431,60.0986103 19.9829882,61.6330429 C21.6511334,63.1674755 23.6899774,63.9346918 26.0995203,63.9346918 L78.2290551,63.9346918 C80.638598,63.9346918 82.7006107,63.1674755 84.4150933,61.6330429 C86.1295758,60.0986103 86.986817,58.2231926 86.986817,56.00679 C86.986817,53.7903874 86.1295758,51.8936582 84.4150933,50.3166024 C82.7006107,48.7395467 80.638598,47.9510188 78.2290551,47.9510188 L26.0995203,47.9510188 L26.0995203,47.9510188 Z M78.5070794,112.01358 L80.3142366,110.351278 L83.7895389,107.154543 C85.1796598,105.87585 86.7087928,104.447975 88.376938,102.870919 C90.0450831,101.293863 91.7132282,99.7381191 93.3813733,98.2036865 C97.3663866,94.5380975 101.861111,90.4462773 106.865546,85.9282258 L118.542562,96.6692539 L105.058389,109.072584 L100.053954,113.675882 L95.4665546,117.895572 C94.1691084,119.089019 93.0801804,120.111974 92.1997705,120.964437 C91.3193605,121.816899 90.8328182,122.285754 90.7401435,122.371 C90.2767699,122.711985 89.7670589,123.074282 89.2110104,123.45789 C88.654962,123.841498 88.0989137,124.161172 87.5428653,124.41691 C86.986817,124.672649 86.1295758,124.992322 84.9711416,125.375931 C83.8127074,125.759539 82.6311046,126.121835 81.4263332,126.46282 C80.2215619,126.803805 79.0631278,127.102167 77.951031,127.357906 C76.8389341,127.613645 76.0048616,127.784138 75.4488132,127.869384 C74.3367165,128.039876 73.5953187,127.912007 73.2246198,127.485776 C72.8539209,127.059544 72.7612462,126.334951 72.9465956,125.311996 C73.0392704,124.800519 73.2246198,124.033302 73.502644,123.010347 C73.7806681,121.987392 74.1050297,120.943125 74.4757287,119.877547 C74.8464276,118.811969 75.1939579,117.810326 75.5183194,116.872617 C75.8426809,115.934908 76.0975364,115.295561 76.2828858,114.954576 C76.8389343,113.846375 77.5803321,112.866043 78.5070793,112.01358 L78.5070794,112.01358 Z" id="Shape"></path>
        </g>
    </g>
</svg>

<svg width="128" height="128" xmlns="http://www.w3.org/2000/svg"><path d="M84.068 23.784c-1.02 0-1.877-.32-2.572-.96a8.588 8.588 0 0 1-1.738-2.237 11.524 11.524 0 0 1-1.042-2.621c-.232-.895-.348-1.641-.348-2.238V0h.278c.834 0 1.622.085 2.363.256.742.17 1.645.575 2.711 1.214 1.066.64 2.363 1.535 3.892 2.686 1.53 1.15 3.453 2.664 5.77 4.54 2.502 2.045 4.494 3.771 5.977 5.178 1.483 1.406 2.618 2.6 3.406 3.58.787.98 1.274 1.812 1.46 2.494.185.682.277 1.278.277 1.79v2.046H84.068zM127.3 84.01c.278.682.464 1.535.556 2.558.093 1.023-.37 2.003-1.39 2.94-.463.427-.88.832-1.25 1.215-.372.384-.696.704-.974.96a6.69 6.69 0 0 1-.973.767l-11.816-10.741a44.331 44.331 0 0 0 1.877-1.535 31.028 31.028 0 0 1 1.737-1.406c1.112-.938 2.317-1.343 3.615-1.215 1.297.128 2.363.405 3.197.83.927.427 1.923 1.173 2.989 2.239 1.065 1.065 1.876 2.195 2.432 3.388zM78.23 95.902c2.038 0 3.752-.511 5.143-1.534l-26.969 25.83H18.037c-1.761 0-3.684-.47-5.77-1.407a24.549 24.549 0 0 1-5.838-3.709 21.373 21.373 0 0 1-4.518-5.306c-1.204-2.003-1.807-4.07-1.807-6.202V16.495c0-1.79.44-3.665 1.32-5.626A18.41 18.41 0 0 1 5.04 5.562a21.798 21.798 0 0 1 5.213-3.964C12.198.533 14.237 0 16.37 0h53.24v15.984c0 1.62.278 3.367.834 5.242a16.704 16.704 0 0 0 2.572 5.179c1.159 1.577 2.665 2.898 4.518 3.964 1.853 1.066 4.078 1.598 6.673 1.598h20.295v42.325L85.458 92.45c1.02-1.364 1.529-2.856 1.529-4.476 0-2.216-.857-4.113-2.572-5.69-1.714-1.577-3.776-2.366-6.186-2.366H26.1c-2.409 0-4.448.789-6.116 2.366-1.668 1.577-2.502 3.474-2.502 5.69 0 2.217.834 4.092 2.502 5.626 1.668 1.535 3.707 2.302 6.117 2.302h52.13zM26.1 47.951c-2.41 0-4.449.789-6.117 2.366-1.668 1.577-2.502 3.473-2.502 5.69 0 2.216.834 4.092 2.502 5.626 1.668 1.534 3.707 2.302 6.117 2.302h52.13c2.409 0 4.47-.768 6.185-2.302 1.715-1.534 2.572-3.41 2.572-5.626 0-2.217-.857-4.113-2.572-5.69-1.714-1.577-3.776-2.366-6.186-2.366H26.1zm52.407 64.063l1.807-1.663 3.476-3.196a479.75 479.75 0 0 0 4.587-4.284 500.757 500.757 0 0 1 5.004-4.667c3.985-3.666 8.48-7.758 13.485-12.276l11.677 10.741-13.485 12.404-5.004 4.603-4.587 4.22a179.46 179.46 0 0 0-3.267 3.068c-.88.853-1.367 1.322-1.46 1.407-.463.341-.973.703-1.529 1.087-.556.383-1.112.703-1.668.959-.556.256-1.413.575-2.572.959a83.5 83.5 0 0 1-3.545 1.087 72.2 72.2 0 0 1-3.475.895c-1.112.256-1.946.426-2.502.511-1.112.17-1.854.043-2.224-.383-.371-.426-.464-1.151-.278-2.174.092-.511.278-1.279.556-2.302.278-1.023.602-2.067.973-3.132l1.042-3.005c.325-.938.58-1.577.765-1.918a10.157 10.157 0 0 1 2.224-2.941z" fill-rule="evenodd"/></svg>
